X:1     %Music
T:The Flower of Serving Men
B: Purslow, F, (1972), The Constant Lovers, EDFS, London
S:Albert Doe, Bartley, Hants, December 1908
Z:Hammond Hp 1322
M:3/2     %Meter
L:1/8     %
K:D
D2 |G2 B B A4 F2 (FE) |D2 D2 D (DD4)
w:My fa-ther he built me a_ shad-y bow-er_ 
 D2 |FG A2 (e3B) c2 d2 | B2 B2 A A3 z2
w:And co-ver'd it o--ver with sham-rock flow-ers;
A2 |B2 d2 (d3B) c2 d2 |B B B2 A4 z2 
w: The fin-est bow_ er that ev-er I see, 
d2 |B2 A2 (F3E) D2 (FE) | D2 D2 D6 z2 |]
w:My ag-ed fa--ther he_ built for me 